X: 25894
T: Matt Peoples'
R: reel
M: 4/4
K: Aminor
AAeA cAeA|B2 dB BAGB|(3AcA eA BAeA|DEGA BAAG|
AAeA BAeA|GBdB BAGB|(3AcA eA (3AcA eA|BAGA BAAg||
a3a agef|gdde g2 (3gab|ae e2 aged|BAGA BAAg|
ae e2 agef|gdde g3b|abge fdef|gega gedB||
AAeA cAeA|{c}GBdB BAGB|(3AcA eA BAeA|BAGA BAAG|
(3AcA eA (3AcA eA|(3AcA gA (3AcA gA|(3AcA eA (3AcA eA|BAGA BAAg||
a(a3 a)gef|gdde g3b|ae e2 aged|BAGA BAAg|
ae e2 agef|gdde g3b|affe edef|(3gab af gedB||

